X: 20
T:Tom Busby's
M:6/8
L:1/8
Q:120
D:Cran "Black, Black, Black
K:AMix
|A |: Bee B2 A| Bee BAG| Bee Bee| BAG AFD| 
Bee B2 A| Bee Bef| gfe dBG| ABG FED :| 
|:~A3 dzd| B3 dBG| ABc ded| BAF {B} AFD|
AFA ded|~ B3 def| gfe dBG| ABG {B} AFD :|
